assets/img/footer/phone.svg

<svg width="17" height="17" viewBox="0 0 17 17" fill="none" xmlns="http://www.w3.org/2000/svg">
<path d="M13.6272 9.94153C13.2998 9.60215 12.9049 9.4207 12.4864 9.4207C12.0712 9.4207 11.6729 9.59879 11.332 9.93817L10.2654 10.9966C10.1777 10.9496 10.0899 10.9059 10.0056 10.8622C9.88405 10.8017 9.76929 10.7446 9.67141 10.6841C8.67233 10.0524 7.76439 9.22917 6.89357 8.16398C6.47167 7.63306 6.18815 7.18616 5.98226 6.73253C6.25903 6.48051 6.51555 6.21841 6.76532 5.9664C6.85982 5.87231 6.95433 5.77487 7.04884 5.68078C7.75764 4.97513 7.75764 4.06116 7.04884 3.35551L6.12739 2.43817C6.02276 2.33401 5.91475 2.22648 5.81349 2.11895C5.61098 1.91062 5.39834 1.69556 5.17895 1.49395C4.85155 1.17137 4.46002 1 4.04824 1C3.63646 1 3.23818 1.17137 2.90065 1.49395C2.89728 1.49731 2.89728 1.49731 2.8939 1.50067L1.74632 2.65323C1.31429 3.08333 1.06789 3.60753 1.01389 4.21573C0.932883 5.19691 1.22315 6.11089 1.44592 6.70901C1.99271 8.17742 2.80952 9.53831 4.02799 10.9966C5.50635 12.754 7.2851 14.1418 9.317 15.1196C10.0933 15.4859 11.1295 15.9194 12.2872 15.9933C12.3581 15.9966 12.4324 16 12.4999 16C13.2795 16 13.9343 15.7211 14.4474 15.1667C14.4508 15.1599 14.4575 15.1566 14.4609 15.1499C14.6364 14.9382 14.8389 14.7466 15.0516 14.5417C15.1967 14.4039 15.3452 14.2594 15.4903 14.1082C15.8245 13.7621 16 13.3589 16 12.9456C16 12.5289 15.8211 12.129 15.4802 11.793L13.6272 9.94153ZM14.8355 13.4798C14.8322 13.4798 14.8322 13.4832 14.8355 13.4798C14.7039 13.621 14.5689 13.7487 14.4238 13.8898C14.2044 14.0981 13.9816 14.3165 13.7723 14.5618C13.4314 14.9247 13.0298 15.0961 12.5032 15.0961C12.4526 15.0961 12.3986 15.0961 12.348 15.0927C11.3455 15.0289 10.414 14.6391 9.71528 14.3065C7.80489 13.3858 6.12739 12.0786 4.73341 10.422C3.58245 9.04099 2.8129 7.76411 2.30323 6.39315C1.98934 5.55645 1.87458 4.90457 1.92521 4.28965C1.95896 3.89651 2.11084 3.57056 2.39099 3.29167L3.54195 2.14583C3.70734 1.99126 3.88285 1.90726 4.05499 1.90726C4.26763 1.90726 4.43977 2.03495 4.54778 2.14247C4.55115 2.14583 4.55453 2.14919 4.5579 2.15255C4.76379 2.34409 4.95956 2.54234 5.16545 2.75403C5.27008 2.86156 5.37809 2.96909 5.48609 3.07997L6.40754 3.99731C6.76531 4.35349 6.76531 4.6828 6.40754 5.03898C6.30966 5.13642 6.21515 5.23387 6.11727 5.32796C5.83375 5.61694 5.56373 5.88575 5.27008 6.14785C5.26333 6.15457 5.25658 6.15793 5.2532 6.16465C4.96293 6.45363 5.01693 6.73589 5.07769 6.92742C5.08106 6.9375 5.08444 6.94758 5.08782 6.95766C5.32746 7.53562 5.66498 8.07997 6.17802 8.72849L6.1814 8.73185C7.11297 9.87433 8.09516 10.7648 9.17862 11.4469C9.317 11.5343 9.45876 11.6048 9.59377 11.672C9.71528 11.7325 9.83004 11.7896 9.92792 11.8501C9.94143 11.8569 9.95493 11.8669 9.96843 11.8737C10.0832 11.9308 10.1912 11.9577 10.3026 11.9577C10.5827 11.9577 10.7582 11.7829 10.8156 11.7258L11.97 10.5766C12.0847 10.4624 12.267 10.3246 12.4796 10.3246C12.6889 10.3246 12.861 10.4556 12.9656 10.5699C12.969 10.5733 12.969 10.5733 12.9724 10.5766L14.8322 12.4281C15.1798 12.7708 15.1798 13.1237 14.8355 13.4798Z" fill="white" stroke="white" stroke-width="0.4"/>
</svg>

<svg width="17" height="17" fill="none" xmlns="http://www.w3.org/2000/svg"><path d="M13.627 9.942c-.327-.34-.722-.521-1.14-.521-.416 0-.814.178-1.155.517l-1.067 1.059c-.087-.047-.175-.091-.26-.135-.121-.06-.236-.117-.334-.178-.999-.632-1.907-1.455-2.777-2.52-.422-.53-.706-.978-.912-1.431.277-.252.534-.515.783-.767l.284-.285c.709-.706.709-1.62 0-2.325l-.922-.918a14.02 14.02 0 01-.314-.32 15.9 15.9 0 00-.634-.624C4.852 1.171 4.46 1 4.049 1c-.413 0-.81.171-1.148.494l-.007.007-1.148 1.152c-.432.43-.678.955-.732 1.563-.081.98.21 1.895.432 2.493.547 1.468 1.364 2.83 2.582 4.288a15.873 15.873 0 005.289 4.123c.776.366 1.813.8 2.97.873.071.004.145.007.213.007.78 0 1.434-.279 1.947-.833.004-.007.01-.01.014-.017.175-.212.378-.403.59-.608.146-.138.294-.283.44-.434.334-.346.509-.75.509-1.162 0-.417-.179-.817-.52-1.153l-1.853-1.851zm1.208 3.538c-.003 0-.003.003 0 0-.131.141-.266.269-.411.41-.22.208-.442.426-.652.672-.34.363-.742.534-1.269.534-.05 0-.104 0-.155-.003-1.003-.064-1.934-.454-2.633-.787a14.984 14.984 0 01-4.982-3.884c-1.15-1.381-1.92-2.658-2.43-4.029-.314-.837-.428-1.488-.378-2.103a1.54 1.54 0 01.466-.998l1.151-1.146c.165-.155.34-.239.513-.239.213 0 .385.128.493.235l.01.01c.206.192.402.39.607.602l.321.326.922.917c.357.356.357.686 0 1.042-.098.097-.193.195-.29.289a17.58 17.58 0 01-.848.82c-.007.007-.013.01-.017.017-.29.289-.236.57-.175.762l.01.03c.24.579.577 1.123 1.09 1.771l.003.004c.932 1.142 1.914 2.033 2.998 2.715.138.087.28.158.415.225.121.06.236.118.334.178l.04.024a.735.735 0 00.335.084c.28 0 .455-.175.513-.232l1.154-1.15c.115-.114.297-.251.51-.251.209 0 .381.13.486.245l.006.007 1.86 1.851c.348.343.348.696.003 1.052z" fill="#fff" stroke="#fff" stroke-width=".4"/></svg>
